src/assets/focus.svg

<svg width="300" height="300" viewBox="0 0 300 300" fill="none" xmlns="http://www.w3.org/2000/svg">
<g clip-path="url(#clip0)">
<path d="M295.211 20.3861H278.34C269.421 3.82213 250.327 0 235.617 0H182.582C176.601 0 171.521 4.89477 171.633 10.8749C171.742 16.6744 176.477 21.3417 182.302 21.3417H200.828L200.803 21.6604H168.566C162.585 21.6604 157.506 26.5551 157.618 32.5352C157.727 38.3348 162.461 43.002 168.287 43.002H199.102L199.026 43.9575H161.559C155.578 43.9575 150.498 48.8523 150.61 54.8324C150.719 60.632 155.454 65.2992 161.28 65.2992H197.324L197.248 66.2547H104.223C98.2415 66.2547 93.162 71.1495 93.2743 77.1296C93.3829 82.9286 98.1177 87.5964 103.943 87.5964L213.755 87.9151C223.267 87.9151 231.201 94.7113 232.949 103.731V128.408C232.949 134.389 237.844 139.469 243.824 139.356C249.624 139.248 254.292 134.513 254.292 128.687V100.856C254.292 99.4865 254.86 98.1791 255.861 97.2453C256.699 96.463 257.787 96.0151 258.93 95.9294C270.741 95.0463 280.049 85.1837 280.049 73.1469H295.212C297.857 73.1469 300.001 71.0028 300.001 68.3578V25.1747C300 22.5302 297.856 20.3861 295.211 20.3861V20.3861Z" fill="#FFD4A1"/>
<path d="M295.211 20.3861H278.339C269.42 3.82213 250.327 0 235.616 0H215.697C230.407 0 249.501 3.82213 258.42 20.3861L260.128 73.1469C260.128 85.1837 250.82 95.0463 239.009 95.9294C237.865 96.0151 236.778 96.4624 235.94 97.2453C234.939 98.1791 234.37 99.4865 234.37 100.856V128.687C234.37 129.985 234.128 131.224 233.703 132.374C235.292 136.466 239.233 139.443 243.823 139.356C249.623 139.248 254.291 134.513 254.291 128.687V100.856C254.291 99.4865 254.859 98.1791 255.86 97.2453C256.699 96.463 257.786 96.0151 258.929 95.9294C270.74 95.0463 280.048 85.1837 280.048 73.1469H295.211C297.856 73.1469 300 71.0028 300 68.3577V25.1746C300 22.5302 297.856 20.3861 295.211 20.3861Z" fill="#FFC183"/>
<path d="M4.60986 279.614H21.6604C30.5795 296.178 49.6732 300 64.3835 300H117.418C123.4 300 128.479 295.105 128.367 289.125C128.258 283.326 123.523 278.658 117.698 278.658H99.172L99.1974 278.34H131.433C137.414 278.34 142.494 273.445 142.382 267.465C142.273 261.665 137.538 256.998 131.713 256.998H100.898L100.974 256.042H138.441C144.422 256.042 149.501 251.148 149.389 245.168C149.28 239.368 144.546 234.701 138.72 234.701H102.676L102.752 233.745H195.777C201.759 233.745 206.838 228.851 206.726 222.87C206.617 217.071 201.882 212.404 196.057 212.404L86.2455 212.085C76.7336 212.085 68.7996 205.289 67.0509 196.269V171.592C67.0509 165.611 62.1561 160.531 56.1761 160.644C50.3765 160.752 45.7086 165.487 45.7086 171.313V199.144C45.7086 200.513 45.1406 201.821 44.1392 202.755C43.3002 203.537 42.2137 203.985 41.0698 204.071C29.2594 204.954 19.9509 214.816 19.9509 226.853H4.60986C2.06378 226.853 0 228.917 0 231.463V275.004C0 277.55 2.06378 279.614 4.60986 279.614V279.614Z" fill="#FFD4A1"/>
<path d="M117.699 278.658H99.1728C99.1728 278.658 108.339 283.326 108.448 289.125C108.56 295.105 103.481 300 97.4995 300H117.419C123.4 300 128.48 295.105 128.368 289.125C128.259 283.326 123.523 278.658 117.699 278.658V278.658Z" fill="#FFC183"/>
<path d="M176.138 212.403C181.964 212.403 186.699 217.071 186.807 222.87C186.92 228.85 181.84 233.745 175.859 233.745H195.778C201.76 233.745 206.839 228.85 206.727 222.87C206.618 217.07 201.883 212.403 196.058 212.403" fill="#FFC183"/>
<path d="M138.721 234.701H118.802C124.627 234.701 129.362 239.369 129.471 245.168C129.583 251.148 124.504 256.043 118.522 256.043H138.442C144.423 256.043 149.503 251.148 149.39 245.168C149.282 239.369 144.547 234.701 138.721 234.701Z" fill="#FFC183"/>
<path d="M131.714 256.998H111.795C117.62 256.998 122.355 261.666 122.464 267.465C122.576 273.445 117.496 278.339 111.515 278.34H131.434C137.415 278.34 142.495 273.445 142.383 267.465C142.274 261.666 137.539 256.998 131.714 256.998Z" fill="#FFC183"/>
<path d="M150 177.704C134.724 177.704 122.296 165.276 122.296 150C122.296 134.724 134.724 122.296 150 122.296C165.276 122.296 177.704 134.724 177.704 150C177.704 165.276 165.277 177.704 150 177.704ZM150 131.35C139.717 131.35 131.351 139.717 131.351 150C131.351 160.283 139.717 168.649 150 168.649C160.283 168.649 168.65 160.283 168.65 150C168.65 139.717 160.283 131.35 150 131.35V131.35Z" fill="#D63BE7"/>
<path d="M149.807 141.007C147.306 141.007 145.28 138.98 145.28 136.48V116.853C145.28 114.353 147.306 112.326 149.807 112.326C152.308 112.326 154.334 114.353 154.334 116.853V136.48C154.334 138.98 152.307 141.007 149.807 141.007V141.007Z" fill="#FDD277"/>
<path d="M150.193 187.674C147.692 187.674 145.666 185.647 145.666 183.147V163.52C145.666 161.02 147.692 158.993 150.193 158.993C152.694 158.993 154.72 161.02 154.72 163.52V183.147C154.72 185.647 152.694 187.674 150.193 187.674Z" fill="#FDD277"/>
<path d="M181.865 154.346H163.882C161.381 154.346 159.354 152.319 159.354 149.819C159.354 147.319 161.381 145.292 163.882 145.292H181.865C184.366 145.292 186.393 147.319 186.393 149.819C186.393 152.319 184.366 154.346 181.865 154.346Z" fill="#FDD277"/>
<path d="M136.118 154.708H118.135C115.634 154.708 113.607 152.681 113.607 150.181C113.607 147.681 115.634 145.654 118.135 145.654H136.118C138.619 145.654 140.645 147.681 140.645 150.181C140.645 152.681 138.619 154.708 136.118 154.708Z" fill="#FDD277"/>
<path d="M55.5892 147.529C53.0884 147.529 51.062 145.502 51.062 143.002V76.7161C51.062 74.2159 53.0884 72.189 55.5892 72.189H75.3964C77.8972 72.189 79.9236 74.2159 79.9236 76.7161C79.9236 79.2163 77.8972 81.2433 75.3964 81.2433H60.1163V143.002C60.1163 145.502 58.0894 147.529 55.5892 147.529V147.529Z" fill="#7D2BE6"/>
<path d="M244.411 228.415H224.604C222.103 228.415 220.077 226.388 220.077 223.888C220.077 221.387 222.103 219.36 224.604 219.36H239.884V157.601C239.884 155.101 241.91 153.074 244.411 153.074C246.912 153.074 248.938 155.101 248.938 157.601V223.887C248.938 226.388 246.912 228.415 244.411 228.415V228.415Z" fill="#7D2BE6"/>
</g>
<defs>
<clipPath id="clip0">
<rect width="300" height="300" fill="white"/>
</clipPath>
</defs>
</svg>

<svg width="300" height="300" fill="none" xmlns="http://www.w3.org/2000/svg"><g clip-path="url(#a)"><path d="M295.211 20.386H278.34C269.421 3.822 250.327 0 235.617 0h-53.035c-5.981 0-11.061 4.895-10.949 10.875.109 5.8 4.844 10.467 10.669 10.467h18.526l-.025.318h-32.237c-5.981 0-11.06 4.895-10.948 10.875.109 5.8 4.843 10.467 10.669 10.467h30.815l-.076.956h-37.467c-5.981 0-11.061 4.894-10.949 10.874.109 5.8 4.844 10.467 10.67 10.467h36.044l-.076.956h-93.025c-5.981 0-11.061 4.895-10.949 10.875.109 5.799 4.844 10.466 10.669 10.466l109.812.32c9.512 0 17.446 6.795 19.194 15.815v24.677c0 5.981 4.895 11.061 10.875 10.948 5.8-.108 10.468-4.843 10.468-10.669v-27.831c0-1.37.568-2.677 1.569-3.61.838-.783 1.926-1.23 3.069-1.317 11.811-.883 21.119-10.745 21.119-22.782h15.163a4.789 4.789 0 0 0 4.789-4.79V25.176a4.79 4.79 0 0 0-4.79-4.789Z" fill="#FFD4A1"/><path d="M295.211 20.386h-16.872C269.42 3.822 250.327 0 235.616 0h-19.919c14.71 0 33.804 3.822 42.723 20.386l1.708 52.76c0 12.038-9.308 21.9-21.119 22.783-1.144.086-2.231.533-3.069 1.316a4.938 4.938 0 0 0-1.57 3.611v27.831c0 1.298-.242 2.537-.667 3.687 1.589 4.092 5.53 7.069 10.12 6.982 5.8-.108 10.468-4.843 10.468-10.669v-27.831c0-1.37.568-2.677 1.569-3.61.839-.783 1.926-1.23 3.069-1.317 11.811-.883 21.119-10.745 21.119-22.782h15.163a4.789 4.789 0 0 0 4.789-4.79V25.176a4.789 4.789 0 0 0-4.789-4.789Z" fill="#FFC183"/><path d="M4.61 279.614h17.05C30.58 296.178 49.673 300 64.384 300h53.034c5.982 0 11.061-4.895 10.949-10.875-.109-5.799-4.844-10.467-10.669-10.467H99.172l.025-.318h32.236c5.981 0 11.061-4.895 10.949-10.875-.109-5.8-4.844-10.467-10.669-10.467h-30.815l.076-.956h37.467c5.981 0 11.06-4.894 10.948-10.874-.109-5.8-4.843-10.467-10.669-10.467h-36.044l.076-.956h93.025c5.982 0 11.061-4.894 10.949-10.875-.109-5.799-4.844-10.466-10.669-10.466l-109.811-.319c-9.512 0-17.446-6.796-19.195-15.816v-24.677c0-5.981-4.895-11.061-10.875-10.948-5.8.108-10.467 4.843-10.467 10.669v27.831a4.938 4.938 0 0 1-1.57 3.611c-.839.782-1.925 1.23-3.07 1.316-11.81.883-21.118 10.745-21.118 22.782H4.61a4.61 4.61 0 0 0-4.61 4.61v43.541a4.61 4.61 0 0 0 4.61 4.61Z" fill="#FFD4A1"/><path d="M117.699 278.658H99.173s9.166 4.668 9.275 10.467C108.56 295.105 103.481 300 97.5 300h19.919c5.981 0 11.061-4.895 10.949-10.875-.109-5.799-4.845-10.467-10.669-10.467ZM176.138 212.403c5.826 0 10.561 4.668 10.669 10.467.113 5.98-4.967 10.875-10.948 10.875h19.919c5.982 0 11.061-4.895 10.949-10.875-.109-5.8-4.844-10.467-10.669-10.467M138.721 234.701h-19.919c5.825 0 10.56 4.668 10.669 10.467.112 5.98-4.967 10.875-10.949 10.875h19.92c5.981 0 11.061-4.895 10.948-10.875-.108-5.799-4.843-10.467-10.669-10.467ZM131.714 256.998h-19.919c5.825 0 10.56 4.668 10.669 10.467.112 5.98-4.968 10.874-10.949 10.875h19.919c5.981 0 11.061-4.895 10.949-10.875-.109-5.799-4.844-10.467-10.669-10.467Z" fill="#FFC183"/><path d="M150 177.704c-15.276 0-27.704-12.428-27.704-27.704s12.428-27.704 27.704-27.704 27.704 12.428 27.704 27.704-12.427 27.704-27.704 27.704Zm0-46.354c-10.283 0-18.649 8.367-18.649 18.65 0 10.283 8.366 18.649 18.649 18.649 10.283 0 18.65-8.366 18.65-18.649 0-10.283-8.367-18.65-18.65-18.65Z" fill="#D63BE7"/><path d="M149.807 141.007a4.527 4.527 0 0 1-4.527-4.527v-19.627a4.527 4.527 0 1 1 9.054 0v19.627c0 2.5-2.027 4.527-4.527 4.527ZM150.193 187.674a4.527 4.527 0 0 1-4.527-4.527V163.52a4.527 4.527 0 1 1 9.054 0v19.627c0 2.5-2.026 4.527-4.527 4.527ZM181.865 154.346h-17.983a4.527 4.527 0 1 1 0-9.054h17.983a4.527 4.527 0 1 1 0 9.054ZM136.118 154.708h-17.983a4.527 4.527 0 1 1 0-9.054h17.983a4.527 4.527 0 1 1 0 9.054Z" fill="#FDD277"/><path d="M55.59 147.529a4.527 4.527 0 0 1-4.528-4.527V76.716c0-2.5 2.026-4.527 4.527-4.527h19.807a4.527 4.527 0 1 1 0 9.054h-15.28v61.759c0 2.5-2.027 4.527-4.527 4.527ZM244.411 228.415h-19.807a4.527 4.527 0 1 1 0-9.055h15.28v-61.759a4.527 4.527 0 1 1 9.054 0v66.286a4.527 4.527 0 0 1-4.527 4.528Z" fill="#7D2BE6"/></g><defs><clipPath id="a"><path fill="#fff" d="M0 0h300v300H0z"/></clipPath></defs></svg>
